X:261
T:Sarah's Jig
M:6/8
L:1/8
C:Bob McQuillan
R:Jig
K:D
A,|"D"DEF "A"EFG|"D"F2D DFG|"D"AFA "G"B2c|"D"d3 d2A|
"G"Bcd dcB|"D"A2d AFG|"D"ABA G2F|"A"E2F GFE|
"D"DEF "A"EFG|"D"F2D DFG|"D"AFA "G"B2c|"D"d3 d2e|
"D"fgf "A"efe|"Bm"ded "F#m"cBA|"G"Bcd "A7"ecA|\
"D"d3 -d2||
|:e|"D"fgf fed|"A"ecA A2e|"D"fgf fed|"A"e2A A2G|
"D"FGA "Em"GAB|"F#m"ABc "G"dcB|"A7"Agf edc|"D"d3 d2:|
% Written by ABC2Win  Version 2.2 beta 4  on 11/1/2005
